X: 676
T: Jake's Got the Bellyache
B: jims roots
M:2/4
L:1/8
Q: 1/4=100
K:Amix
V:1 
%
%Moderate
%ADae tuning
"A"ABcd e2 ef | "G"gage dBG2 | "A"(3cBA BG ABAG ||[M:5/4]"G"ED E2G2"A"A2A2:|
V:e4e4 
|:"A"ABcd e2 ed | "G"efge dB G2 | "A"ABcd e2d2 | "E"ea2b "A"a2a2|
V:M:2/4 
|:"A"A2 BA GE E2 | "A (G)"EEDE GE E2-| "A"EABA GEEE | [M:5/4]"A"(3GED E2G2A2A2:|
% abcbook-tune_id 6298c25d97e912b2e3c087f2


% abcbook-boost 0
% abcbook-tablature 
% abcbook-transpose 
% abcbook-lastupdated 1654178399069
% abcbook-soundfonts 
% abcbook-repeats 1


